X:572
M:C|
L:1/8
K:G Minor
g|bgdg dgbg|afcf AFcA|bgdg dgbg|fdcA BGGg|bgdg dgbg|
afcf AFcA|BGBd cedg|fdcA BGG||

